**kern
*staff1
!!pagebreak:original
*I"P1
=1-
*clefG2
*k[b-e-a-d-g-]
*M3/4
8e-/
8r
4.e-/
16g-/LL
16a-/JJ
=2
8b-\
8r
2b-\
=3
ee-q/
4.dd-\
8cc\
4dd-\
=4
16dd-q/LL
16ddnq/JJ
8ee-\
8r
2b-\
=5
16a-q/LL
16b-q/JJ
4.a-/
8g-/
4a-/
=6
8b-\L
8ddn\J
8b-/L
8a-/J
4g-/
=7
8e-/
8r
=
*-
